backburger.svg

<svg fill="currentColor" viewBox="0 0 24 24"><path d="m5 13 4 4-1.4 1.42L1.18 12 7.6 5.58 9 7l-4 4h16v2zm16-7v2H11V6zm0 10v2H11v-2z"/></svg>

<svg  viewBox="0 0 24 24" fill="currentColor"><path  d="M5,13L9,17L7.6,18.42L1.18,12L7.6,5.58L9,7L5,11H21V13H5M21,6V8H11V6H21M21,16V18H11V16H21Z"/></svg>
